X: 1
T: Gammalpolska fr\aan F\"ollinge efter Lapp Nils
C: source: Erika Lystedt e. Snickar-Erske workshop 1/99
S: Bruce Sagan's "scanfolk" session archive
F: https://nordicfiddlesandfeet.org/Allspel/Gammalpolska.pdf 2010-7-13
R: polska
Z: 2021 John Chambers <jc:trillian.mit.edu>
M: 3/4
L: 1/8
K: D
|:\
A>d (3f(af) d>d | (3A(BA) (3F(AF) (3D(EF) | (G>B) (B<G) G>E | (E>A) (A<F) F>D |
A>d (3f(af) d>d | (3A(BA) (3F(AF) (3D(EF) | (G>B) (B<G) G>E | (3(A,CE) D4 :|
|:\
A>d (3f(af) d>f | a>a (3f(af) (3d(fb) | g>g (3e(ge) (3c(Ac) | d>B (3B(AG) B>A |
A>d (3f(af) d>f | a>a (3f(af) (3d(fb) | g>g (3e(ge) (3c(ec) | (3(ABc) [d4D4] :|
